public/images/logos/tara-jarmon.svg

<svg xmlns="http://www.w3.org/2000/svg" width="842" height="94" fill="none"><path fill="#1D1D1B" d="M132.12 86.36c1.6 1.95 3.86 3.51 6.67 3.51 2.54 0 4.76-1.64 4.76-4.1 0-4.17-5.77-4.64-9.4-7.02-1.95-1.29-3.47-3.16-3.47-6 0-3.98 3.51-7.25 8.27-7.25 3.47 0 5.89 1.52 7.33 2.73l-2.3 2.85c-1.48-1.25-3.16-1.87-4.87-1.87-2.26 0-4.52 1.29-4.52 3.67 0 3.47 5.81 4.21 9.32 6.55 1.83 1.21 3.55 3.12 3.55 6.24 0 4.8-3.7 7.92-8.46 7.92-3.74 0-7.13-1.64-9.55-4.56l2.69-2.65-.02-.02Zm60.57-6.05h-8.97v9.16h12.09v3.7h-15.99v-27.3h15.6v3.71h-11.7v7.02h8.97v3.71Zm46.38-14.81c3.9 0 7.6 1.6 9.98 4.21l-2.61 2.57c-1.6-1.76-4.45-3.08-7.37-3.08-5.58 0-9.91 4.45-9.91 10.33s4.45 10.34 10.26 10.34c3.67 0 6.32-2.03 7.84-3.86l2.77 2.5c-2.34 3-6.4 5.07-10.61 5.07-8.15 0-14.15-5.97-14.15-14.04s5.93-14.04 13.8-14.04Zm53.68 0c7.72 0 13.65 6.08 13.65 14.04 0 7.96-5.93 14.04-13.65 14.04-7.72 0-13.65-6.08-13.65-14.04 0-7.96 5.93-14.04 13.65-14.04Zm0 24.37c5.57 0 9.75-4.41 9.75-10.34s-4.17-10.33-9.75-10.33S283 73.65 283 79.53s4.17 10.34 9.75 10.34Zm49.74-16.73v20.04h-3.9v-27.3h2.73l16.38 20.05V65.88h3.9v27.3h-2.73l-16.38-20.04Zm53.44 20.04v-27.3h8.19c4.33 0 7.14.94 9.36 2.58 3.35 2.5 5.46 6.55 5.46 11.07 0 4.52-2.07 8.58-5.42 11.08-2.22 1.64-5.07 2.57-9.4 2.57h-8.19Zm15.79-21.29c-1.72-1.48-3.98-2.3-7.8-2.3h-4.09v19.89h4.09c3.82 0 6.08-.82 7.8-2.3 2.07-1.83 3.31-4.6 3.31-7.64s-1.25-5.81-3.31-7.64v-.01Zm52.27 8.42h-8.97v9.16h12.09v3.7h-15.99v-27.3h15.6v3.71h-11.7v7.02h8.97v3.71Zm85.23 7.02-7.99-12.52v18.37h-3.9v-27.3h2.73l10.53 16.65 10.53-16.65h2.73v27.3h-3.9V74.81l-7.99 12.52h-2.74Zm64.05-1.17h-11.5l-2.85 7.02h-4.06l11.31-27.3h2.73l11.31 27.3h-4.06l-2.89-7.02h.01Zm-9.94-3.7h8.42l-4.21-10.14-4.21 10.14Zm47.9-16.57h3.9v27.3h-3.9v-27.3Zm42.12 7.25v20.04h-3.9v-27.3h2.73l16.38 20.05V65.88h3.9v27.3h-2.73l-16.38-20.04ZM0 .78v9.46h11.64v29.51h10.8V10.24h11.69V.78H0Zm97.01 12.53 4.34 11.02h-8.74l4.4-11.02ZM91.88.5 75.34 39.75h11.3l2.78-7.01h15.09l2.79 7.01h11.58L102.29.5H91.88Zm93.33 18.99c3.62 0 5.79-1.78 5.79-4.62v-.11c0-3.12-2.28-4.68-5.85-4.68h-7.13v9.41h7.19ZM167.23.78h18.43c5.96 0 10.08 1.56 12.7 4.18 2.28 2.28 3.45 5.23 3.45 9.08v.11c0 6.01-3.17 9.96-8.02 12.03l9.3 13.58h-12.41l-7.85-11.8h-4.79v11.8h-10.8V.78h-.01Zm102.46 12.53 4.34 11.02h-8.74l4.4-11.02ZM264.57.5l-16.54 39.25h11.3l2.78-7.01h15.09l2.78 7.01h11.58L274.98.5h-10.41Zm105.59 33.35 6.96-6.57c1.89 2.28 3.67 3.62 6.12 3.62 2.67 0 4.4-1.84 4.4-5.45V.78h10.75V25.5c0 4.9-1.23 8.35-3.84 10.97-2.56 2.56-6.24 3.95-10.69 3.95-6.79 0-10.91-2.84-13.7-6.57Zm96.39-20.54 4.34 11.02h-8.74l4.4-11.02ZM461.43.5l-16.54 39.25h11.3l2.78-7.01h15.09l2.78 7.01h11.58L471.85.5h-10.42Zm93.34 18.99c3.62 0 5.79-1.78 5.79-4.62v-.11c0-3.12-2.28-4.68-5.85-4.68h-7.13v9.41h7.19ZM536.79.78h18.43c5.96 0 10.08 1.56 12.7 4.18 2.28 2.28 3.45 5.23 3.45 9.08v.11c0 6.01-3.17 9.96-8.01 12.03l9.3 13.58h-12.42l-7.85-11.8h-4.79v11.8h-10.8V.78h-.01Zm114.59 0-9.3 15.09L632.79.78h-11.42v38.97h10.58V17.43l9.91 15.2h.22l9.97-15.26v22.38h10.75V.78h-11.42Zm92.5 19.6v-.11c0-5.68-4.01-10.52-9.97-10.52-5.96 0-9.91 4.79-9.91 10.41v.11c0 5.62 4.06 10.52 10.02 10.52s9.86-4.79 9.86-10.41Zm-30.9 0v-.11C712.98 9.08 722 0 734.03 0c12.03 0 20.94 8.96 20.94 20.16v.11c0 11.19-9.02 20.27-21.05 20.27-12.03 0-20.94-8.96-20.94-20.16ZM831.2.78v20.6L815.16.78h-10.08v38.97h10.69V18.37l16.71 21.38h9.41V.78H831.2Z"/></svg>

<svg width="842" height="94" viewBox="0 0 842 94" fill="none" xmlns="http://www.w3.org/2000/svg">
<path d="M132.12 86.36C133.72 88.31 135.98 89.87 138.79 89.87C141.33 89.87 143.55 88.23 143.55 85.77C143.55 81.6 137.78 81.13 134.15 78.75C132.2 77.46 130.68 75.59 130.68 72.75C130.68 68.77 134.19 65.5 138.95 65.5C142.42 65.5 144.84 67.02 146.28 68.23L143.98 71.08C142.5 69.83 140.82 69.21 139.11 69.21C136.85 69.21 134.59 70.5 134.59 72.88C134.59 76.35 140.4 77.09 143.91 79.43C145.74 80.64 147.46 82.55 147.46 85.67C147.46 90.47 143.76 93.59 139 93.59C135.26 93.59 131.87 91.95 129.45 89.03L132.14 86.38L132.12 86.36ZM192.69 80.31H183.72V89.47H195.81V93.17H179.82V65.87H195.42V69.58H183.72V76.6H192.69V80.31ZM239.07 65.5C242.97 65.5 246.67 67.1 249.05 69.71L246.44 72.28C244.84 70.52 241.99 69.2 239.07 69.2C233.49 69.2 229.16 73.65 229.16 79.53C229.16 85.41 233.61 89.87 239.42 89.87C243.09 89.87 245.74 87.84 247.26 86.01L250.03 88.51C247.69 91.51 243.63 93.58 239.42 93.58C231.27 93.58 225.27 87.61 225.27 79.54C225.27 71.47 231.2 65.5 239.07 65.5ZM292.75 65.5C300.47 65.5 306.4 71.58 306.4 79.54C306.4 87.5 300.47 93.58 292.75 93.58C285.03 93.58 279.1 87.5 279.1 79.54C279.1 71.58 285.03 65.5 292.75 65.5ZM292.75 89.87C298.32 89.87 302.5 85.46 302.5 79.53C302.5 73.6 298.33 69.2 292.75 69.2C287.17 69.2 283 73.65 283 79.53C283 85.41 287.17 89.87 292.75 89.87ZM342.49 73.14V93.18H338.59V65.88H341.32L357.7 85.93V65.88H361.6V93.18H358.87L342.49 73.14ZM395.93 93.18V65.88H404.12C408.45 65.88 411.26 66.82 413.48 68.46C416.83 70.96 418.94 75.01 418.94 79.53C418.94 84.05 416.87 88.11 413.52 90.61C411.3 92.25 408.45 93.18 404.12 93.18H395.93ZM411.72 71.89C410 70.41 407.74 69.59 403.92 69.59H399.83V89.48H403.92C407.74 89.48 410 88.66 411.72 87.18C413.79 85.35 415.03 82.58 415.03 79.54C415.03 76.5 413.78 73.73 411.72 71.9V71.89ZM463.99 80.31H455.02V89.47H467.11V93.17H451.12V65.87H466.72V69.58H455.02V76.6H463.99V80.31ZM549.22 87.33L541.23 74.81V93.18H537.33V65.88H540.06L550.59 82.53L561.12 65.88H563.85V93.18H559.95V74.81L551.96 87.33H549.22ZM613.27 86.16H601.77L598.92 93.18H594.86L606.17 65.88H608.9L620.21 93.18H616.15L613.26 86.16H613.27ZM603.33 82.46H611.75L607.54 72.32L603.33 82.46ZM651.23 65.89H655.13V93.19H651.23V65.89ZM693.35 73.14V93.18H689.45V65.88H692.18L708.56 85.93V65.88H712.46V93.18H709.73L693.35 73.14ZM0 0.78V10.24H11.64V39.75H22.44V10.24H34.13V0.78H0ZM97.01 13.31L101.35 24.33H92.61L97.01 13.31ZM91.88 0.5L75.34 39.75H86.64L89.42 32.74H104.51L107.3 39.75H118.88L102.29 0.5H91.88ZM185.21 19.49C188.83 19.49 191 17.71 191 14.87V14.76C191 11.64 188.72 10.08 185.15 10.08H178.02V19.49H185.21ZM167.23 0.78H185.66C191.62 0.78 195.74 2.34 198.36 4.96C200.64 7.24 201.81 10.19 201.81 14.04V14.15C201.81 20.16 198.64 24.11 193.79 26.18L203.09 39.76H190.68L182.83 27.96H178.04V39.76H167.24V0.78H167.23ZM269.69 13.31L274.03 24.33H265.29L269.69 13.31ZM264.57 0.5L248.03 39.75H259.33L262.11 32.74H277.2L279.98 39.75H291.56L274.98 0.5H264.57ZM370.16 33.85L377.12 27.28C379.01 29.56 380.79 30.9 383.24 30.9C385.91 30.9 387.64 29.06 387.64 25.45V0.78H398.39V25.5C398.39 30.4 397.16 33.85 394.55 36.47C391.99 39.03 388.31 40.42 383.86 40.42C377.07 40.42 372.95 37.58 370.16 33.85ZM466.55 13.31L470.89 24.33H462.15L466.55 13.31ZM461.43 0.5L444.89 39.75H456.19L458.97 32.74H474.06L476.84 39.75H488.42L471.85 0.5H461.43ZM554.77 19.49C558.39 19.49 560.56 17.71 560.56 14.87V14.76C560.56 11.64 558.28 10.08 554.71 10.08H547.58V19.49H554.77ZM536.79 0.78H555.22C561.18 0.78 565.3 2.34 567.92 4.96C570.2 7.24 571.37 10.19 571.37 14.04V14.15C571.37 20.16 568.2 24.11 563.36 26.18L572.66 39.76H560.24L552.39 27.96H547.6V39.76H536.8V0.78H536.79ZM651.38 0.78L642.08 15.87L632.79 0.78H621.37V39.75H631.95V17.43L641.86 32.63H642.08L652.05 17.37V39.75H662.8V0.78H651.38ZM743.88 20.38V20.27C743.88 14.59 739.87 9.75 733.91 9.75C727.95 9.75 724 14.54 724 20.16V20.27C724 25.89 728.06 30.79 734.02 30.79C739.98 30.79 743.88 26 743.88 20.38ZM712.98 20.38V20.27C712.98 9.08 722 0 734.03 0C746.06 0 754.97 8.96 754.97 20.16V20.27C754.97 31.46 745.95 40.54 733.92 40.54C721.89 40.54 712.98 31.58 712.98 20.38ZM831.2 0.78V21.38L815.16 0.78H805.08V39.75H815.77V18.37L832.48 39.75H841.89V0.78H831.2Z" fill="#1D1D1B"/>
</svg>
